X:1
T:The Bloom of Youth
L:1/8
M:4/4
I:linebreak $
K:G
V:1 treble 
V:1
|: G2 DG EG DF | G2 BG AG EF | G2 DE DG Bc | dB cA BG AF | G2 DG EG DF | G2 BG AG EF |$ %6
 G2 DG EG Dc | dB Ac BG G2 :| gd (3(ddd) ed cA | Bd Ac BE E2 | gd (3(ddd) ed cA | dc Ac BG G2 |$ %12
 gd (3(ddd) ed cA | Bd Ac BE E2 | cB cd ef ge | dB Ac BG G2 :| %16
